assets/sonr-icons/filter.svg

<svg xmlns="http://www.w3.org/2000/svg" width="24" height="24" fill="none" viewBox="0 0 24 24"><path stroke="#000" stroke-linejoin="round" stroke-width="2" d="M18 4H6C4.89543 4 4 4.89543 4 6V7.17157C4 7.70201 4.21071 8.21071 4.58579 8.58579L9.41421 13.4142C9.78929 13.7893 10 14.298 10 14.8284V20.057C10 20.7552 10.6974 21.2385 11.3511 20.9933L13.3511 20.2433C13.7414 20.097 14 19.7238 14 19.307V14.8284C14 14.298 14.2107 13.7893 14.5858 13.4142L19.4142 8.58579C19.7893 8.21071 20 7.70201 20 7.17157V6C20 4.89543 19.1046 4 18 4Z"/></svg>

<svg xmlns="http://www.w3.org/2000/svg" width="24" height="24" fill="none"><path stroke="#000" stroke-linejoin="round" stroke-width="2" d="M18 4H6a2 2 0 0 0-2 2v1.172a2 2 0 0 0 .586 1.414l4.828 4.828A2 2 0 0 1 10 14.828v5.229a1 1 0 0 0 1.351.936l2-.75a1 1 0 0 0 .649-.936v-4.479a2 2 0 0 1 .586-1.414l4.828-4.828A2 2 0 0 0 20 7.172V6a2 2 0 0 0-2-2Z"/></svg>
